X: 19
T: King Of The Fairies
Z: UPipes & harp
S: https://thesession.org/tunes/475#setting49434
R: hornpipe
M: 4/4
L: 1/8
K: Gmaj
B,2|:EDEF GFGA|B2 {c}BA G3 A|B2 E2 EFGE|FGFE (3DED B,2|
EDEF GFGA|BAGB d3c|B2E2 GFED|1 E6 B,2:|2 E6 E (3Bcd||
e2 B2 Bdef|gagf e3f|e2B2 {c}BABc|dedc Bc (3dcB|
e2B2 Bdef|gagf efed|(3Bcd (3efg fe (3def|e4 e2 ef|
g2 (3gfe f2 (3fed|edBc d3 e|dBAF GABc|dBAF (3GFE (3FED|
B,2 E2 EFGA|B2 e2 e3 f|e2B2 {c}BAGF|E6||

